X: 20293
Q: "Moderate."
M: 6/8
L: 1/8
K: E
[|\
e>fe edc | B2A G2A | F2f fgf | d2c B2B |\
E3 e3 | fgf fdB | B2B efg | {b}a2g fed |
e2e efe | cBA cde | d2e fag | fge dcB |\
e2G A2c | B2A GAB | cBf e2d | e2e e3 |\
e2G A2c | B2A GAB | cBf e2d | e2e e3 |]


